X: 17269
T: Here's To Temperance
R: jig
M: 6/8
K: Adorian
|:E2A AGA|Bde ~g3|gab age|deg ~B3|
E2A AGA|Bde g2b|age dBG|BAG A3:|
|:e2a aga|b2c' bag|egg dgg|~e3 ged|
eae ~a3|b2c' bag|e2g ged|BAG A3:|

